big12/logo_standard/west_virginia_mountaineers.svg

<?xml version="1.0" encoding="UTF-8" standalone="no"?>
<!-- Created with Inkscape (http://www.inkscape.org/) -->

<svg
   xmlns:dc="http://purl.org/dc/elements/1.1/"
   xmlns:cc="http://creativecommons.org/ns#"
   xmlns:rdf="http://www.w3.org/1999/02/22-rdf-syntax-ns#"
   xmlns:svg="http://www.w3.org/2000/svg"
   xmlns="http://www.w3.org/2000/svg"
   version="1.0"
   width="280"
   height="200"
   id="svg16997">
  <metadata
     id="metadata4248">
    <rdf:RDF>
      <cc:Work
         rdf:about="">
        <dc:format>image/svg+xml</dc:format>
        <dc:type
           rdf:resource="http://purl.org/dc/dcmitype/StillImage" />
        <dc:title></dc:title>
      </cc:Work>
    </rdf:RDF>
  </metadata>
  <defs
     id="defs16999" />
  <g
     transform="matrix(1.238256,0,0,1.238256,360.87725,42.237962)"
     id="layer1">
    <path
       d="m -100.95286,62.31568 -14.36375,0 c 0,0 -3.94625,-0.6175 -6.98875,4.27125 l -32.0575,50.19125 c 0,0 -2.65625,5.39875 -5.82125,0 l -33.195,-55.475 16.7625,-23.53375 20.25875,32.3675 19.02125,-27.565 c 0,0 2.955,-4.93625 8.985,-4.93625 l 27.39875,0 0,24.68 z m -100.2725,-11.425 -30.72625,-50.24624966 c -2.135,-3.53125004 -6.93125,-3.16125004 -6.93125,-3.16125004 l -14.80875,0 0.055,-24.0262503 31.11375,0.0675 c 4.67125,0 7.59875,6.48875 7.59875,6.48875 l 16.6375,27.7862503 19.46625,-29.1175003 c 2.7175,-5.96375 5.1575,0 5.1575,0 l 17.97,29.1175003 18.635,-27.7862503 c 4.2075,-7.5775 7.375,-6.48875 7.375,-6.48875 l 28.73,0 0,23.9587503 -14.80875,0 c -5.3525,-0.37 -6.54375,3.16125004 -6.54375,3.16125004 L -153.47411,50.89068 c -3.0725,4.705 -5.60125,0 -5.60125,0 l -17.0275,-27.175 -19.74375,27.175 c -3.46375,4.46875 -5.37875,0 -5.37875,0 m 70.3925,-20.55625 12.99375,-22.4462497 c 0,0 1.37375,-3.0475 5.125,-2.68 l 19.107503,-0.05375 0,-38.9300003 -36.446253,0 c -2.20125,0.35875 -6.48375,-0.55 -11.21,5.72625 l -13.83875,23.3012503 -14.99375,-26.5300003 c 0,0 -5.46125,-6.37375 -11.825,0 l -16.48375,25.2212503 -12.24375,-22.3325003 c 0,0 -2.99,-5.49875 -10.08875,-5.49875 l -39.985,0 -0.03,38.9412503 18.26625,0.02 c 0,0 4.19125,-0.96625 6.20625,3.7075 0,0 72.47875,115.5587497 72.4025,115.5587497 3.97375,4.1925 9.61875,4.02625 12.74125,-0.12625 l 31.79375,-48.785 c 0,0 2.45,-5.81 6.52125,-5.80125 l 19.267503,0 0.01875,-39.33 -37.298753,0.0375 z"
       id="path3647"
       style="fill:#003366;fill-opacity:1;fill-rule:nonzero;stroke:none" />
    <path
       d="m -137.33661,42.57193 -19.02125,27.565 -20.25875,-32.3675 -16.7625,23.53375 33.195,55.475 c 3.165,5.39875 5.82125,0 5.82125,0 l 32.0575,-50.19125 c 3.0425,-4.88875 6.98875,-4.27125 6.98875,-4.27125 l 14.36375,0 0,-24.68 -27.39875,0 c -6.03,0 -8.985,4.93625 -8.985,4.93625"
       id="path3649"
       style="fill:#ffcc00;fill-opacity:1;fill-rule:nonzero;stroke:none" />
    <path
       d="m -129.68286,-26.47557 c 0,0 -3.1675,-1.08875 -7.375,6.48875 l -18.635,27.7862503 -17.97,-29.1175003 c 0,0 -2.44,-5.96375 -5.1575,0 l -19.46625,29.1175003 -16.6375,-27.7862503 c 0,0 -2.9275,-6.48875 -7.59875,-6.48875 l -31.11375,-0.0675 -0.055,24.0262503 14.80875,0 c 0,0 4.79625,-0.37 6.93125,3.16125004 L -201.22536,50.89068 c 0,0 1.915,4.46875 5.37875,0 l 19.74375,-27.175 17.0275,27.175 c 0,0 2.52875,4.705 5.60125,0 l 31.16875,-50.24624966 c 0,0 1.19125,-3.53125004 6.54375,-3.16125004 l 14.80875,0 0,-23.9587503 -28.73,0 z"
       id="path3651"
       style="fill:#ffcc00;fill-opacity:1;fill-rule:nonzero;stroke:none" />
    <path
       d="m -138.02536,122.59193 -0.92875,0 0,-1.7525 1.41625,0 c 0.615,0 1.28875,0.0937 1.28875,0.8575 0,1.01125 -1.07875,0.895 -1.77625,0.895 m 2.39125,-0.8825 c 0,-0.41625 -0.18625,-0.85875 -0.5575,-1.0675 -0.37125,-0.22 -0.78875,-0.24375 -1.2075,-0.24375 l -2.1575,0 0,4.95625 0.6025,0 0,-2.28625 1.115,0 1.41625,2.28625 0.71875,0 -1.4975,-2.28625 c 0.88125,-0.0237 1.5675,-0.38375 1.5675,-1.35875"
       id="path3653"
       style="fill:#003366;fill-opacity:1;fill-rule:nonzero;stroke:none" />
    <path
       d="m -137.90911,126.78068 c -2.15875,0 -3.9,-1.74 -3.9,-3.91125 0,-2.145 1.74125,-3.88625 3.9,-3.88625 2.1475,0 3.8875,1.74125 3.8875,3.88625 0,2.17125 -1.74,3.91125 -3.8875,3.91125 m 0,-8.33125 c -2.46,0 -4.445,1.985 -4.445,4.42 0,2.4625 1.985,4.44625 4.445,4.44625 2.4475,0 4.42125,-1.98375 4.42125,-4.44625 0,-2.435 -1.97375,-4.42 -4.42125,-4.42"
       id="path3655"
       style="fill:#003366;fill-opacity:1;fill-rule:nonzero;stroke:none" />
  </g>
</svg>

<?xml version="1.0" encoding="UTF-8" standalone="no"?>
<!-- Created with Inkscape (http://www.inkscape.org/) -->
<svg xmlns:svg="http://www.w3.org/2000/svg" xmlns="http://www.w3.org/2000/svg" version="1.0" width="167.2175" height="161.51749" id="svg16997">
  <defs id="defs16999"/>
  <g transform="translate(260.75161,34.110848)" id="layer1">
    <path d="M -100.95286,62.31568 L -115.31661,62.31568 C -115.31661,62.31568 -119.26286,61.69818 -122.30536,66.58693 L -154.36286,116.77818 C -154.36286,116.77818 -157.01911,122.17693 -160.18411,116.77818 L -193.37911,61.30318 L -176.61661,37.76943 L -156.35786,70.13693 L -137.33661,42.57193 C -137.33661,42.57193 -134.38161,37.63568 -128.35161,37.63568 L -100.95286,37.63568 L -100.95286,62.31568 z M -201.22536,50.89068 L -231.95161,0.64443034 C -234.08661,-2.8868197 -238.88286,-2.5168197 -238.88286,-2.5168197 L -253.69161,-2.5168197 L -253.63661,-26.54307 L -222.52286,-26.47557 C -217.85161,-26.47557 -214.92411,-19.98682 -214.92411,-19.98682 L -198.28661,7.7994303 L -178.82036,-21.31807 C -176.10286,-27.28182 -173.66286,-21.31807 -173.66286,-21.31807 L -155.69286,7.7994303 L -137.05786,-19.98682 C -132.85036,-27.56432 -129.68286,-26.47557 -129.68286,-26.47557 L -100.95286,-26.47557 L -100.95286,-2.5168197 L -115.76161,-2.5168197 C -121.11411,-2.8868197 -122.30536,0.64443034 -122.30536,0.64443034 L -153.47411,50.89068 C -156.54661,55.59568 -159.07536,50.89068 -159.07536,50.89068 L -176.10286,23.71568 L -195.84661,50.89068 C -199.31036,55.35943 -201.22536,50.89068 -201.22536,50.89068 M -130.83286,30.33443 L -117.83911,7.8881803 C -117.83911,7.8881803 -116.46536,4.8406803 -112.71411,5.2081803 L -93.606607,5.1544303 L -93.606607,-33.77557 L -130.05286,-33.77557 C -132.25411,-33.41682 -136.53661,-34.32557 -141.26286,-28.04932 L -155.10161,-4.7480697 L -170.09536,-31.27807 C -170.09536,-31.27807 -175.55661,-37.65182 -181.92036,-31.27807 L -198.40411,-6.0568197 L -210.64786,-28.38932 C -210.64786,-28.38932 -213.63786,-33.88807 -220.73661,-33.88807 L -260.72161,-33.88807 L -260.75161,5.0531803 L -242.48536,5.0731803 C -242.48536,5.0731803 -238.29411,4.1069303 -236.27911,8.7806803 C -236.27911,8.7806803 -163.80036,124.33943 -163.87661,124.33943 C -159.90286,128.53193 -154.25786,128.36568 -151.13536,124.21318 L -119.34161,75.42818 C -119.34161,75.42818 -116.89161,69.61818 -112.82036,69.62693 L -93.552857,69.62693 L -93.534107,30.29693 L -130.83286,30.33443 z" id="path3647" style="fill:#003366;fill-opacity:1;fill-rule:nonzero;stroke:none"/>
    <path d="M -137.33661,42.57193 L -156.35786,70.13693 L -176.61661,37.76943 L -193.37911,61.30318 L -160.18411,116.77818 C -157.01911,122.17693 -154.36286,116.77818 -154.36286,116.77818 L -122.30536,66.58693 C -119.26286,61.69818 -115.31661,62.31568 -115.31661,62.31568 L -100.95286,62.31568 L -100.95286,37.63568 L -128.35161,37.63568 C -134.38161,37.63568 -137.33661,42.57193 -137.33661,42.57193" id="path3649" style="fill:#ffcc00;fill-opacity:1;fill-rule:nonzero;stroke:none"/>
    <path d="M -129.68286,-26.47557 C -129.68286,-26.47557 -132.85036,-27.56432 -137.05786,-19.98682 L -155.69286,7.7994303 L -173.66286,-21.31807 C -173.66286,-21.31807 -176.10286,-27.28182 -178.82036,-21.31807 L -198.28661,7.7994303 L -214.92411,-19.98682 C -214.92411,-19.98682 -217.85161,-26.47557 -222.52286,-26.47557 L -253.63661,-26.54307 L -253.69161,-2.5168197 L -238.88286,-2.5168197 C -238.88286,-2.5168197 -234.08661,-2.8868197 -231.95161,0.64443034 L -201.22536,50.89068 C -201.22536,50.89068 -199.31036,55.35943 -195.84661,50.89068 L -176.10286,23.71568 L -159.07536,50.89068 C -159.07536,50.89068 -156.54661,55.59568 -153.47411,50.89068 L -122.30536,0.64443034 C -122.30536,0.64443034 -121.11411,-2.8868197 -115.76161,-2.5168197 L -100.95286,-2.5168197 L -100.95286,-26.47557 L -129.68286,-26.47557 z" id="path3651" style="fill:#ffcc00;fill-opacity:1;fill-rule:nonzero;stroke:none"/>
    <path d="M -138.02536,122.59193 L -138.95411,122.59193 L -138.95411,120.83943 L -137.53786,120.83943 C -136.92286,120.83943 -136.24911,120.93318 -136.24911,121.69693 C -136.24911,122.70818 -137.32786,122.59193 -138.02536,122.59193 M -135.63411,121.70943 C -135.63411,121.29318 -135.82036,120.85068 -136.19161,120.64193 C -136.56286,120.42193 -136.98036,120.39818 -137.39911,120.39818 L -139.55661,120.39818 L -139.55661,125.35443 L -138.95411,125.35443 L -138.95411,123.06818 L -137.83911,123.06818 L -136.42286,125.35443 L -135.70411,125.35443 L -137.20161,123.06818 C -136.32036,123.04443 -135.63411,122.68443 -135.63411,121.70943" id="path3653" style="fill:#003366;fill-opacity:1;fill-rule:nonzero;stroke:none"/>
    <path d="M -137.90911,126.78068 C -140.06786,126.78068 -141.80911,125.04068 -141.80911,122.86943 C -141.80911,120.72443 -140.06786,118.98318 -137.90911,118.98318 C -135.76161,118.98318 -134.02161,120.72443 -134.02161,122.86943 C -134.02161,125.04068 -135.76161,126.78068 -137.90911,126.78068 M -137.90911,118.44943 C -140.36911,118.44943 -142.35411,120.43443 -142.35411,122.86943 C -142.35411,125.33193 -140.36911,127.31568 -137.90911,127.31568 C -135.46161,127.31568 -133.48786,125.33193 -133.48786,122.86943 C -133.48786,120.43443 -135.46161,118.44943 -137.90911,118.44943" id="path3655" style="fill:#003366;fill-opacity:1;fill-rule:nonzero;stroke:none"/>
  </g>
</svg>
